X: 21699
T: Kilty Town
R: reel
M: 4/4
K: Gmajor
|:BG~G2 d2cA|(3Bcd cA BGG2|A~D3 c~D3|
"1"B~D3 cBA2|BGG2 d2cA|BdcA BG~G2|FGAd fdeg|1 fdcA G3A:|2 fdcA G2Bd||
|:~g3a g~B3|eBgB e~B3|dega b2ag|e~a3 agef|
g2bg f2af|egfd edBG|"2"c2ec B2dB|AGAB cdef:|
|:g2dc BGG2|FGAB cBcA|G~B3 BABc|d2AG FDEF|
G2BG F2AF|EGFD EDCB,|C2EC B,2DB,|FGAc BGG2:|
P: Variations
"1"~B3d cAA2|"2" cdec BcdB|

